svg/u1f408_200d_2b1b.svg

<svg viewBox="0 0 128 128" xmlns="http://www.w3.org/2000/svg">
  <path d="M41.94,80.79c0,0-4.22,7.41-5.54,12.86c-1.31,5.44-0.59,7.57,0.84,12.01 c1.64,5.07,3.63,9.19,7.46,6.76c3.1-1.97,3.43-6.71,2.96-8.59c-0.47-1.88-0.89-4.5-0.7-5.63c0.19-1.13,2.3-6.24,3.99-8.68 c1.69-2.44,1.69-6.01,1.41-6.29C52.07,82.95,41.94,80.79,41.94,80.79z" fill="#4D4D4D"/>
  <path d="M51.75,117.35c0,0-1.2,6.62-0.56,6.62c0.63,0,5.07-0.21,6.62-1.27c1.55-1.06,2.94-4.65,4.22-8.73 c1.55-4.93,3.71-11.25,4.22-12.81c0.94-2.86,1.97-5.77,1.97-5.77s4.78-0.43,7.74-0.56c4.72-0.21,8-0.43,8.73,0.07 c0.92,0.63,5.15,3.48,6.19,5c1.55,2.25-3.8,12.81-3.8,12.81s-3.8,3.38-3.66,5.28c0.14,1.9,3.8,1.69,7.04,1.55 c3.24-0.14,4.97-1.06,5.42-1.55c1.69-1.83,3.45-6.83,4.58-10.91c1.08-3.91,2.53-6.34,2.11-8.87c-0.42-2.53-13.23-13.37-13.23-13.37 l-31.46,7.6L51.75,117.35z" fill="#4D4D4D"/>
  <path d="M34.02,29.16l16.52-6.66c0,0-1.6-4.22-3.66-7.88c-2.06-3.66-6.66-10.51-8.82-9.95 c-2.16,0.56-4.42,11-4.93,13.8C32.09,24.18,34.02,29.16,34.02,29.16z" fill="#4D4D4D"/>
  <path d="M18.72,43.75c-0.03,0-3.42,0-5.73-0.07c-2.32-0.07-4.48-0.14-4.48-0.14s-1.07-0.03-1.07-1.08 c0-1.06,1.11-1.01,1.11-1.01s2.17,0.07,4.5,0.14c2.28,0.07,5.64,0.07,5.67,0.07c0.58,0,1.05,0.47,1.05,1.05S19.3,43.75,18.72,43.75 z" fill="#B0B1B2"/>
  <path d="M8.57,50.1c0,0-0.99,0.27-1.21-0.81c-0.22-1.09,0.76-1.24,0.76-1.24s2.87-0.85,4.85-1.27 c1.96-0.42,6.04-1.19,6.08-1.2c0.57-0.11,1.12,0.27,1.23,0.84c0.11,0.57-0.27,1.12-0.84,1.23c-0.04,0.01-4.09,0.78-6.03,1.19 C11.44,49.25,8.57,50.1,8.57,50.1z" fill="#B0B1B2"/>
  <path d="M13.42,55.51c-0.34,0-0.67-0.17-0.88-0.47c-0.32-0.48-0.19-1.13,0.29-1.46l5.48-4.29 c0.48-0.32,1.13-0.19,1.46,0.29c0.32,0.48,0.19,1.13-0.29,1.46l-5.14,4.05C14.16,55.21,13.62,55.51,13.42,55.51z" fill="#B0B1B2"/>
  <path d="M36.54,67.37c0,0.84,0.59,7.08,1.27,11.54c0.7,4.65,2.82,8.17,7.04,10.98 c5.07,3.38,9.57,3.94,9.57,3.94s-1.55,9.57-3.66,15.91c-0.38,1.15-2.67,5.84-3.17,6.62s-1.83,3.03-1.62,4.65 c0.23,1.76,1.55,3.8,7.18,2.67c4.56-0.91,5-5.51,6.34-9.24c0.5-1.4,3.61-10.04,4.22-12.06c1.35-4.47,2.11-7.48,2.82-8.26 c0.7-0.77,8.17-1.13,12.81-1.41c4.65-0.28,12.11-0.42,12.11-0.42s3.17,2.6,6.69,4.22c5.48,2.52,10.63,3.24,13.02,6.48 c2.31,3.12,1.93,6.13,1.41,8.66c-0.84,4.08-2.38,6.33-2.11,7.81c0.35,1.97,2.25,2.18,6.19,2.25c3.81,0.07,4.55-0.69,5.28-2.53 c2.89-7.3-1.76-16.75-2.11-23.02c-0.17-2.97-4.86-3.8-5.91-8.17c-1.06-4.36-1.38-8.8-2.65-13.16c-1.38-4.76-3.1-8.78-3.1-8.78 s4.9-2.98,7.93-6.29c3.03-3.31,7.35-7.7,5.58-16.38c-1.41-6.9-6.01-11.5-16.92-14.95c-10.79-3.41-12.99,0.55-13.3,3.14 c-0.42,3.52,4.08,4.74,8.87,5.65s13.96,3.83,11.26,11.83c-1.69,5-9.15,8.05-9.15,8.05s-7.18-1.08-16.89-0.02 C77.7,57.95,73.98,60,73.14,59.63c-1.27-0.56-0.42-2.39,0.92-4.5c2.12-3.35,4.72-7.74,4.72-13.23s-2.6-8.45-2.6-8.45 s-0.07-10.77-1.62-16.89S70.12,3.32,67.09,3.18c-3.03-0.14-8.38,7.25-9.78,9.57s-3.73,7.11-3.73,7.11s-8.2-0.99-15.06,2.32 c-6.02,2.9-9.71,11.97-11.54,12.67c-1.83,0.7-6.15,0.54-7.84,3.36c-0.7,1.16-0.77,8.89-0.77,8.89s0.53,1.83,1.09,3.43 c0.44,1.25,2.72,4.6,5.46,6.61c3.56,2.61,8.32,6.3,9.37,7.14C35.34,65.12,36.54,67.37,36.54,67.37z" fill="#5D6265"/>
  <path d="M57.24,24.22c0.07,1.48,3.45,3.45,5.21,4.72c1.76,1.27,4.29,4.05,5.28,3.87 c1.75-0.31,1.62-7.74,1.27-11.05c-0.35-3.31-2.11-8.8-3.24-9.22c-1.13-0.42-4.05,3.79-4.79,4.93C59.7,19.44,57.17,22.89,57.24,24.22 z" fill="#FFAB93"/>
  <path d="M21.63,44.61c0.47-0.56,7.57-2.44,7.8-3.71s-1.45-2.3-4.41-3c-2.66-0.63-5.09-0.38-5.69,0.05 c-0.8,0.56-1.69,3.43-1.45,6.34c0.24,3.01,1.26,5.47,2.58,6.8c0.92,0.93,3.16,2.39,5.13,2.53c1.97,0.14,3.8-0.7,4.79-1.69 s0.28-2.58-1.22-1.69c-1.5,0.89-2.5,1.16-3.8,0.8c-1.36-0.38-3.31-1.71-3.72-3.89C21.38,45.85,21.63,44.61,21.63,44.61z" fill="#2F2F2F"/>
  <path d="M51.12,53.64c-0.16,0-0.32-0.04-0.47-0.11c-0.03-0.01-2.81-1.42-5.22-2.13 c-2.48-0.73-4.8-1.29-4.83-1.3c-0.56-0.14-0.91-0.7-0.78-1.27c0.14-0.56,0.7-0.91,1.27-0.78c0.02,0.01,2.4,0.58,4.93,1.33 c2.6,0.77,5.45,2.22,5.57,2.28c0.52,0.26,0.72,0.89,0.46,1.41C51.87,53.43,51.5,53.64,51.12,53.64z" fill="#B0B1B2"/>
  <path d="M50.04,60.87c-0.22,0-0.44-0.07-0.62-0.21c-0.03-0.02-3.25-2.4-5.32-3.83 c-2.01-1.38-4.79-2.67-4.82-2.68c-0.53-0.24-0.76-0.87-0.52-1.39c0.24-0.53,0.87-0.76,1.39-0.52c0.12,0.06,2.97,1.37,5.13,2.86 c2.1,1.45,5.35,3.84,5.38,3.87c0.47,0.34,0.56,1,0.22,1.47C50.68,60.72,50.36,60.87,50.04,60.87z" fill="#B0B1B2"/>
  <path d="M45.07,64.53c-0.25,0-0.5-0.09-0.7-0.27l-6.94-6.19c-0.43-0.39-0.47-1.05-0.08-1.48 c0.39-0.43,1.05-0.47,1.48-0.08l6.94,6.19c0.43,0.39,0.47,1.05,0.08,1.48C45.64,64.41,45.36,64.53,45.07,64.53z" fill="#B0B1B2"/>
  <ellipse cx="41.93" cy="38.7" fill="#010000" rx="4.76" ry="3.75" transform="matrix(0.5 -0.866 0.866 0.5 -12.5511 55.6638)"/>
  <path d="M41.61,37.99c-0.55,1.03-1.51,1.69-2.3,1.2c-0.79-0.49-0.34-2.06,0.1-2.65 c0.44-0.59,1.23-1.33,2.01-0.84C42.22,36.2,41.98,37.31,41.61,37.99z" fill="#DEDEDE"/>
</svg>

<svg viewBox="0 0 128 128" xmlns="http://www.w3.org/2000/svg">
  <defs/>
  <path d="M41.94,80.79 C41.94,80.79 37.72,88.2 36.4,93.65 C35.09,99.09 35.81,101.22 37.24,105.66 C38.88,110.73 40.87,114.85 44.7,112.42 C47.8,110.45 48.13,105.71 47.66,103.83 C47.19,101.95 46.77,99.33 46.96,98.2 C47.15,97.07 49.26,91.96 50.95,89.52 C52.64,87.08 52.64,83.51 52.36,83.23 C52.07,82.95 41.94,80.79 41.94,80.79 Z" fill="#4D4D4D"/>
  <path d="M51.75,117.35 C51.75,117.35 50.55,123.97 51.19,123.97 C51.82,123.97 56.26,123.76 57.81,122.7 C59.36,121.64 60.75,118.05 62.03,113.97 C63.58,109.04 65.74,102.72 66.25,101.16 C67.19,98.3 68.22,95.39 68.22,95.39 C68.22,95.39 73,94.96 75.96,94.83 C80.68,94.62 83.96,94.4 84.69,94.9 C85.61,95.53 89.84,98.38 90.88,99.9 C92.43,102.15 87.08,112.71 87.08,112.71 C87.08,112.71 83.28,116.09 83.42,117.99 C83.56,119.89 87.22,119.68 90.46,119.54 C93.7,119.4 95.43,118.48 95.88,117.99 C97.57,116.16 99.33,111.16 100.46,107.08 C101.54,103.17 102.99,100.74 102.57,98.21 C102.15,95.68 89.34,84.84 89.34,84.84 L57.88,92.44 L51.75,117.35 Z" fill="#4D4D4D"/>
  <path d="M34.02,29.16 L50.54,22.5 C50.54,22.5 48.94,18.28 46.88,14.62 C44.82,10.96 40.22,4.11 38.06,4.67 C35.9,5.23 33.64,15.67 33.13,18.47 C32.09,24.18 34.02,29.16 34.02,29.16 Z" fill="#4D4D4D"/>
  <path d="M18.72,43.75 C18.69,43.75 15.3,43.75 12.99,43.68 C10.67,43.61 8.51,43.54 8.51,43.54 C8.51,43.54 7.44,43.51 7.44,42.46 C7.44,41.4 8.55,41.45 8.55,41.45 C8.55,41.45 10.72,41.52 13.05,41.59 C15.33,41.66 18.69,41.66 18.72,41.66 C19.3,41.66 19.77,42.13 19.77,42.71 C19.77,43.29 19.3,43.75 18.72,43.75 Z" fill="#B0B1B2"/>
  <path d="M8.57,50.1 C8.57,50.1 7.58,50.37 7.36,49.29 C7.14,48.2 8.12,48.05 8.12,48.05 C8.12,48.05 10.99,47.2 12.97,46.78 C14.93,46.36 19.01,45.59 19.05,45.58 C19.62,45.47 20.17,45.85 20.28,46.42 C20.39,46.99 20.01,47.54 19.44,47.65 C19.4,47.66 15.35,48.43 13.41,48.84 C11.44,49.25 8.57,50.1 8.57,50.1 Z" fill="#B0B1B2"/>
  <path d="M13.42,55.51 C13.08,55.51 12.75,55.34 12.54,55.04 C12.22,54.56 12.35,53.91 12.83,53.58 L18.31,49.29 C18.79,48.97 19.44,49.1 19.77,49.58 C20.09,50.06 19.96,50.71 19.48,51.04 L14.34,55.09 C14.16,55.21 13.62,55.51 13.42,55.51 Z" fill="#B0B1B2"/>
  <path d="M36.54,67.37 C36.54,68.21 37.13,74.45 37.81,78.91 C38.51,83.56 40.63,87.08 44.85,89.89 C49.92,93.27 54.42,93.83 54.42,93.83 C54.42,93.83 52.87,103.4 50.76,109.74 C50.38,110.89 48.09,115.58 47.59,116.36 C47.09,117.14 45.76,119.39 45.97,121.01 C46.2,122.77 47.52,124.81 53.15,123.68 C57.71,122.77 58.15,118.17 59.49,114.44 C59.99,113.04 63.1,104.4 63.71,102.38 C65.06,97.91 65.82,94.9 66.53,94.12 C67.23,93.35 74.7,92.99 79.34,92.71 C83.99,92.43 91.45,92.29 91.45,92.29 C91.45,92.29 94.62,94.89 98.14,96.51 C103.62,99.03 108.77,99.75 111.16,102.99 C113.47,106.11 113.09,109.12 112.57,111.65 C111.73,115.73 110.19,117.98 110.46,119.46 C110.81,121.43 112.71,121.64 116.65,121.71 C120.46,121.78 121.2,121.02 121.93,119.18 C124.82,111.88 120.17,102.43 119.82,96.16 C119.65,93.19 114.96,92.36 113.91,87.99 C112.85,83.63 112.53,79.19 111.26,74.83 C109.88,70.07 108.16,66.05 108.16,66.05 C108.16,66.05 113.06,63.07 116.09,59.76 C119.12,56.45 123.44,52.06 121.67,43.38 C120.26,36.48 115.66,31.88 104.75,28.43 C93.96,25.02 91.76,28.98 91.45,31.57 C91.03,35.09 95.53,36.31 100.32,37.22 C105.11,38.13 114.28,41.05 111.58,49.05 C109.89,54.05 102.43,57.1 102.43,57.1 C102.43,57.1 95.25,56.02 85.54,57.08 C77.7,57.95 73.98,60 73.14,59.63 C71.87,59.07 72.72,57.24 74.06,55.13 C76.18,51.78 78.78,47.39 78.78,41.9 C78.78,36.41 76.18,33.45 76.18,33.45 C76.18,33.45 76.11,22.68 74.56,16.56 C73.01,10.44 70.12,3.32 67.09,3.18 C64.06,3.04 58.71,10.43 57.31,12.75 C55.91,15.07 53.58,19.86 53.58,19.86 C53.58,19.86 45.38,18.87 38.52,22.18 C32.5,25.08 28.81,34.15 26.98,34.85 C25.15,35.55 20.83,35.39 19.14,38.21 C18.44,39.37 18.37,47.1 18.37,47.1 C18.37,47.1 18.9,48.93 19.46,50.53 C19.9,51.78 22.18,55.13 24.92,57.14 C28.48,59.75 33.24,63.44 34.29,64.28 C35.34,65.12 36.54,67.37 36.54,67.37 Z" fill="#5D6265"/>
  <path d="M57.24,24.22 C57.31,25.7 60.69,27.67 62.45,28.94 C64.21,30.21 66.74,32.99 67.73,32.81 C69.48,32.5 69.35,25.07 69,21.76 C68.65,18.45 66.89,12.96 65.76,12.54 C64.63,12.12 61.71,16.33 60.97,17.47 C59.7,19.44 57.17,22.89 57.24,24.22 Z" fill="#FFAB93"/>
  <path d="M21.63,44.61 C22.1,44.05 29.2,42.17 29.43,40.9 C29.66,39.63 27.98,38.6 25.02,37.9 C22.36,37.27 19.93,37.52 19.33,37.95 C18.53,38.51 17.64,41.38 17.88,44.29 C18.12,47.3 19.14,49.76 20.46,51.09 C21.38,52.02 23.62,53.48 25.59,53.62 C27.56,53.76 29.39,52.92 30.38,51.93 C31.37,50.94 30.66,49.35 29.16,50.24 C27.66,51.13 26.66,51.4 25.36,51.04 C24,50.66 22.05,49.33 21.64,47.15 C21.38,45.85 21.63,44.61 21.63,44.61 Z" fill="#2F2F2F"/>
  <path d="M51.12,53.64 C50.96,53.64 50.8,53.6 50.65,53.53 C50.62,53.52 47.84,52.11 45.43,51.4 C42.95,50.67 40.63,50.11 40.6,50.1 C40.04,49.96 39.69,49.4 39.82,48.83 C39.96,48.27 40.52,47.92 41.09,48.05 C41.11,48.06 43.49,48.63 46.02,49.38 C48.62,50.15 51.47,51.6 51.59,51.66 C52.11,51.92 52.31,52.55 52.05,53.07 C51.87,53.43 51.5,53.64 51.12,53.64 Z" fill="#B0B1B2"/>
  <path d="M50.04,60.87 C49.82,60.87 49.6,60.8 49.42,60.66 C49.39,60.64 46.17,58.26 44.1,56.83 C42.09,55.45 39.31,54.16 39.28,54.15 C38.75,53.91 38.52,53.28 38.76,52.76 C39,52.23 39.63,52 40.15,52.24 C40.27,52.3 43.12,53.61 45.28,55.1 C47.38,56.55 50.63,58.94 50.66,58.97 C51.13,59.31 51.22,59.97 50.88,60.44 C50.68,60.72 50.36,60.87 50.04,60.87 Z" fill="#B0B1B2"/>
  <path d="M45.07,64.53 C44.82,64.53 44.57,64.44 44.37,64.26 L37.43,58.07 C37,57.68 36.96,57.02 37.35,56.59 C37.74,56.16 38.4,56.12 38.83,56.51 L45.77,62.7 C46.2,63.09 46.24,63.75 45.85,64.18 C45.64,64.41 45.36,64.53 45.07,64.53 Z" fill="#B0B1B2"/>
  <path d="M44.308,34.58 C46.102,35.616 46.49,38.301 45.176,40.577 C43.861,42.854 41.342,43.86 39.548,42.825 C37.755,41.789 37.366,39.104 38.681,36.827 C39.995,34.551 42.515,33.545 44.308,34.58 Z" fill="#010000"/>
  <path d="M41.61,37.99 C41.06,39.02 40.1,39.68 39.31,39.19 C38.52,38.7 38.97,37.13 39.41,36.54 C39.85,35.95 40.64,35.21 41.42,35.7 C42.22,36.2 41.98,37.31 41.61,37.99 Z" fill="#DEDEDE"/>
</svg>
